; Fabric CNC Toolpath
; Generated by ToolpathGenerator
; Machine homing is automatically verified before execution

G20 ; Set units to inches
G90 ; Set absolute positioning
G54 ; Use work coordinate system (WCS)
G17 ; Select XY plane
G94 ; Feed rate mode (units per minute)

G0 Z-2.0 ; Move to safe height

; Shape: merged_shape_24
G0 X22.767 Y31.933 ; Move to start
G0 A-0.4375 ; Set initial blade angle
G0 Z-2.0 ; Plunge to cutting height
G1 X22.715 Y31.807 A-0.4375 F6000.0 ; Cut to next point
G1 X22.657 Y31.667 A-0.4375 F6000.0 ; Cut to next point
G1 X22.583 Y31.490 A-0.4375 F6000.0 ; Cut to next point
G1 X22.500 Y31.288 A-0.4375 F6000.0 ; Cut to next point
G1 X22.410 Y31.071 A-0.4375 F6000.0 ; Cut to next point
G1 X22.319 Y30.852 A-0.4375 F6000.0 ; Cut to next point
G1 X22.232 Y30.641 A-0.4375 F6000.0 ; Cut to next point
G1 X22.153 Y30.450 A-0.4375 F6000.0 ; Cut to next point
G1 X22.086 Y30.290 A-0.4375 F6000.0 ; Cut to next point
G1 X22.038 Y30.173 A-0.4375 F6000.0 ; Cut to next point
G0 Z-2.0 ; Raise Z for corner
G0 A-0.2940 ; Rotate blade for new direction
G0 Z-2.0 ; Lower Z to cutting height
G1 X21.908 Y30.136 A-0.2940 F6000.0 ; Cut to next point
G0 Z-2.0 ; Raise Z for corner
G0 A-0.1972 ; Rotate blade for new direction
G0 Z-2.0 ; Lower Z to cutting height
G1 X21.707 Y30.205 A-0.1972 F6000.0 ; Cut to next point
G1 X21.504 Y30.270 A-0.2004 F6000.0 ; Cut to next point
G1 X21.300 Y30.331 A-0.2036 F6000.0 ; Cut to next point
G1 X21.094 Y30.389 A-0.2069 F6000.0 ; Cut to next point
G1 X20.886 Y30.442 A-0.2101 F6000.0 ; Cut to next point
G1 X20.677 Y30.491 A-0.2133 F6000.0 ; Cut to next point
G1 X20.466 Y30.536 A-0.2165 F6000.0 ; Cut to next point
G1 X20.253 Y30.577 A-0.2198 F6000.0 ; Cut to next point
G1 X20.040 Y30.613 A-0.2230 F6000.0 ; Cut to next point
G1 X19.824 Y30.646 A-0.2263 F6000.0 ; Cut to next point
G1 X19.608 Y30.674 A-0.2295 F6000.0 ; Cut to next point
G1 X19.390 Y30.698 A-0.2328 F6000.0 ; Cut to next point
G0 Z-2.0 ; Raise Z for corner
G0 A-0.0417 ; Rotate blade for new direction
G0 Z-2.0 ; Lower Z to cutting height
G1 X19.352 Y30.836 A-0.0417 F6000.0 ; Cut to next point
G1 X19.311 Y30.991 A-0.0417 F6000.0 ; Cut to next point
G1 X19.258 Y31.187 A-0.0417 F6000.0 ; Cut to next point
G1 X19.199 Y31.410 A-0.0417 F6000.0 ; Cut to next point
G1 X19.135 Y31.649 A-0.0417 F6000.0 ; Cut to next point
G1 X19.070 Y31.891 A-0.0417 F6000.0 ; Cut to next point
G1 X19.007 Y32.124 A-0.0417 F6000.0 ; Cut to next point
G1 X18.951 Y32.334 A-0.0417 F6000.0 ; Cut to next point
G1 X18.904 Y32.511 A-0.0417 F6000.0 ; Cut to next point
G1 X18.869 Y32.641 A-0.0417 F6000.0 ; Cut to next point
G0 Z-2.0 ; Raise Z for corner
G0 A0.1751 ; Rotate blade for new direction
G0 Z-2.0 ; Lower Z to cutting height
G1 X19.012 Y32.714 A0.1751 F6000.0 ; Cut to next point
G0 Z-2.0 ; Raise Z for corner
G0 A0.2605 ; Rotate blade for new direction
G0 Z-2.0 ; Lower Z to cutting height
G1 X19.339 Y32.692 A0.2605 F6000.0 ; Cut to next point
G1 X19.665 Y32.663 A0.2645 F6000.0 ; Cut to next point
G1 X19.988 Y32.625 A0.2686 F6000.0 ; Cut to next point
G1 X20.308 Y32.579 A0.2727 F6000.0 ; Cut to next point
G1 X20.626 Y32.525 A0.2768 F6000.0 ; Cut to next point
G1 X20.941 Y32.463 A0.2808 F6000.0 ; Cut to next point
G1 X21.253 Y32.393 A0.2849 F6000.0 ; Cut to next point
G1 X21.562 Y32.316 A0.2889 F6000.0 ; Cut to next point
G1 X21.868 Y32.231 A0.2930 F6000.0 ; Cut to next point
G1 X22.171 Y32.139 A0.2970 F6000.0 ; Cut to next point
G1 X22.471 Y32.040 A0.3010 F6000.0 ; Cut to next point
G1 X22.767 Y31.933 A0.3050 F6000.0 ; Cut to next point
G0 Z-2.0 ; Raise tool to safe height

; Shape: merged_shape_25
G0 X17.815 Y32.712 ; Move to start
G0 A-0.4583 ; Set initial blade angle
G0 Z-2.0 ; Plunge to cutting height
G1 X17.761 Y32.511 A-0.4583 F6000.0 ; Cut to next point
G1 X17.713 Y32.334 A-0.4583 F6000.0 ; Cut to next point
G1 X17.657 Y32.124 A-0.4583 F6000.0 ; Cut to next point
G1 X17.595 Y31.891 A-0.4583 F6000.0 ; Cut to next point
G1 X17.530 Y31.649 A-0.4583 F6000.0 ; Cut to next point
G1 X17.466 Y31.410 A-0.4583 F6000.0 ; Cut to next point
G1 X17.406 Y31.187 A-0.4583 F6000.0 ; Cut to next point
G1 X17.354 Y30.991 A-0.4583 F6000.0 ; Cut to next point
G1 X17.312 Y30.836 A-0.4583 F6000.0 ; Cut to next point
G1 X17.275 Y30.698 A-0.4583 F6000.0 ; Cut to next point
G0 Z-2.0 ; Raise Z for corner
G0 A-0.2672 ; Rotate blade for new direction
G0 Z-2.0 ; Lower Z to cutting height
G1 X17.057 Y30.674 A-0.2672 F6000.0 ; Cut to next point
G1 X16.841 Y30.646 A-0.2705 F6000.0 ; Cut to next point
G1 X16.626 Y30.614 A-0.2737 F6000.0 ; Cut to next point
G1 X16.412 Y30.577 A-0.2770 F6000.0 ; Cut to next point
G1 X16.200 Y30.536 A-0.2802 F6000.0 ; Cut to next point
G1 X15.989 Y30.491 A-0.2835 F6000.0 ; Cut to next point
G1 X15.780 Y30.442 A-0.2867 F6000.0 ; Cut to next point
G1 X15.573 Y30.389 A-0.2899 F6000.0 ; Cut to next point
G1 X15.367 Y30.332 A-0.2931 F6000.0 ; Cut to next point
G1 X15.163 Y30.271 A-0.2963 F6000.0 ; Cut to next point
G1 X14.960 Y30.206 A-0.2995 F6000.0 ; Cut to next point
G1 X14.760 Y30.137 A-0.3027 F6000.0 ; Cut to next point
G1 X14.656 Y30.109 A-0.2913 F6000.0 ; Cut to next point
G0 Z-2.0 ; Raise Z for corner
G0 A-0.0625 ; Rotate blade for new direction
G0 Z-2.0 ; Lower Z to cutting height
G1 X14.581 Y30.291 A-0.0625 F6000.0 ; Cut to next point
G1 X14.515 Y30.452 A-0.0625 F6000.0 ; Cut to next point
G1 X14.436 Y30.643 A-0.0625 F6000.0 ; Cut to next point
G1 X14.348 Y30.853 A-0.0625 F6000.0 ; Cut to next point
G1 X14.257 Y31.073 A-0.0625 F6000.0 ; Cut to next point
G1 X14.168 Y31.289 A-0.0625 F6000.0 ; Cut to next point
G1 X14.084 Y31.491 A-0.0625 F6000.0 ; Cut to next point
G1 X14.011 Y31.668 A-0.0625 F6000.0 ; Cut to next point
G1 X13.953 Y31.809 A-0.0625 F6000.0 ; Cut to next point
G1 X13.914 Y31.901 A-0.0625 F6000.0 ; Cut to next point
G0 Z-2.0 ; Raise Z for corner
G0 A0.1768 ; Rotate blade for new direction
G0 Z-2.0 ; Lower Z to cutting height
G1 X14.197 Y32.041 A0.1768 F6000.0 ; Cut to next point
G1 X14.496 Y32.140 A0.1990 F6000.0 ; Cut to next point
G1 X14.799 Y32.232 A0.2031 F6000.0 ; Cut to next point
G1 X15.105 Y32.317 A0.2071 F6000.0 ; Cut to next point
G1 X15.414 Y32.394 A0.2111 F6000.0 ; Cut to next point
G1 X15.725 Y32.463 A0.2151 F6000.0 ; Cut to next point
G1 X16.040 Y32.525 A0.2192 F6000.0 ; Cut to next point
G1 X16.358 Y32.579 A0.2232 F6000.0 ; Cut to next point
G1 X16.678 Y32.625 A0.2273 F6000.0 ; Cut to next point
G1 X17.000 Y32.663 A0.2314 F6000.0 ; Cut to next point
G1 X17.325 Y32.692 A0.2355 F6000.0 ; Cut to next point
G1 X17.653 Y32.714 A0.2395 F6000.0 ; Cut to next point
G1 X17.815 Y32.712 A0.2518 F6000.0 ; Cut to next point
G0 Z-2.0 ; Raise tool to safe height

; Shape: merged_shape_27
G0 X13.083 Y31.595 ; Move to start
G0 A0.4375 ; Set initial blade angle
G0 Z-2.0 ; Plunge to cutting height
G1 X13.135 Y31.470 A0.4375 F6000.0 ; Cut to next point
G1 X13.193 Y31.329 A0.4375 F6000.0 ; Cut to next point
G1 X13.266 Y31.152 A0.4375 F6000.0 ; Cut to next point
G1 X13.350 Y30.950 A0.4375 F6000.0 ; Cut to next point
G1 X13.440 Y30.734 A0.4375 F6000.0 ; Cut to next point
G1 X13.531 Y30.514 A0.4375 F6000.0 ; Cut to next point
G1 X13.618 Y30.304 A0.4375 F6000.0 ; Cut to next point
G1 X13.697 Y30.113 A0.4375 F6000.0 ; Cut to next point
G1 X13.763 Y29.953 A0.4375 F6000.0 ; Cut to next point
G1 X13.812 Y29.835 A0.4375 F6000.0 ; Cut to next point
G0 Z-2.0 ; Raise Z for corner
G0 A0.5971 ; Rotate blade for new direction
G0 Z-2.0 ; Lower Z to cutting height
G1 X13.721 Y29.705 A0.5971 F6000.0 ; Cut to next point
G0 Z-2.0 ; Raise Z for corner
G0 A0.6768 ; Rotate blade for new direction
G0 Z-2.0 ; Lower Z to cutting height
G1 X13.481 Y29.586 A0.6768 F6000.0 ; Cut to next point
G1 X13.245 Y29.462 A0.6728 F6000.0 ; Cut to next point
G1 X13.012 Y29.331 A0.6688 F6000.0 ; Cut to next point
G1 X12.783 Y29.196 A0.6649 F6000.0 ; Cut to next point
G1 X12.558 Y29.054 A0.6609 F6000.0 ; Cut to next point
G1 X12.336 Y28.908 A0.6569 F6000.0 ; Cut to next point
G1 X12.119 Y28.756 A0.6530 F6000.0 ; Cut to next point
G1 X11.905 Y28.598 A0.6490 F6000.0 ; Cut to next point
G1 X11.696 Y28.436 A0.6451 F6000.0 ; Cut to next point
G1 X11.490 Y28.269 A0.6412 F6000.0 ; Cut to next point
G1 X11.289 Y28.096 A0.6372 F6000.0 ; Cut to next point
G1 X11.092 Y27.919 A0.6333 F6000.0 ; Cut to next point
G0 Z-2.0 ; Raise Z for corner
G0 A0.8558 ; Rotate blade for new direction
G0 Z-2.0 ; Lower Z to cutting height
G1 X10.984 Y28.004 A0.8558 F6000.0 ; Cut to next point
G1 X10.863 Y28.098 A0.8558 F6000.0 ; Cut to next point
G1 X10.711 Y28.218 A0.8558 F6000.0 ; Cut to next point
G1 X10.537 Y28.354 A0.8558 F6000.0 ; Cut to next point
G1 X10.351 Y28.500 A0.8558 F6000.0 ; Cut to next point
G1 X10.162 Y28.648 A0.8558 F6000.0 ; Cut to next point
G1 X9.981 Y28.790 A0.8558 F6000.0 ; Cut to next point
G1 X9.817 Y28.919 A0.8558 F6000.0 ; Cut to next point
G1 X9.679 Y29.027 A0.8558 F6000.0 ; Cut to next point
G1 X9.577 Y29.106 A0.8558 F6000.0 ; Cut to next point
G0 Z-2.0 ; Raise Z for corner
G0 A1.0562 ; Rotate blade for new direction
G0 Z-2.0 ; Lower Z to cutting height
G1 X9.640 Y29.275 A1.0562 F6000.0 ; Cut to next point
G0 Z-2.0 ; Raise Z for corner
G0 A1.1316 ; Rotate blade for new direction
G0 Z-2.0 ; Lower Z to cutting height
G1 X9.894 Y29.509 A1.1316 F6000.0 ; Cut to next point
G1 X10.155 Y29.737 A1.1360 F6000.0 ; Cut to next point
G1 X10.423 Y29.957 A1.1403 F6000.0 ; Cut to next point
G1 X10.696 Y30.170 A1.1446 F6000.0 ; Cut to next point
G1 X10.975 Y30.376 A1.1490 F6000.0 ; Cut to next point
G1 X11.260 Y30.574 A1.1533 F6000.0 ; Cut to next point
G1 X11.551 Y30.764 A1.1577 F6000.0 ; Cut to next point
G1 X11.847 Y30.947 A1.1621 F6000.0 ; Cut to next point
G1 X12.148 Y31.121 A1.1664 F6000.0 ; Cut to next point
G1 X12.455 Y31.288 A1.1708 F6000.0 ; Cut to next point
G1 X12.766 Y31.446 A1.1752 F6000.0 ; Cut to next point
G1 X13.083 Y31.595 A1.1797 F6000.0 ; Cut to next point
G0 Z-2.0 ; Raise tool to safe height

; Shape: merged_shape_22
G0 X27.150 Y29.142 ; Move to start
G0 A-0.3549 ; Set initial blade angle
G0 Z-2.0 ; Plunge to cutting height
G1 X26.993 Y29.020 A-0.3549 F6000.0 ; Cut to next point
G1 X26.854 Y28.913 A-0.3549 F6000.0 ; Cut to next point
G1 X26.689 Y28.785 A-0.3549 F6000.0 ; Cut to next point
G1 X26.507 Y28.643 A-0.3549 F6000.0 ; Cut to next point
G1 X26.317 Y28.496 A-0.3549 F6000.0 ; Cut to next point
G1 X26.130 Y28.351 A-0.3549 F6000.0 ; Cut to next point
G1 X25.955 Y28.216 A-0.3549 F6000.0 ; Cut to next point
G1 X25.802 Y28.097 A-0.3549 F6000.0 ; Cut to next point
G1 X25.681 Y28.003 A-0.3549 F6000.0 ; Cut to next point
G1 X25.572 Y27.919 A-0.3549 F6000.0 ; Cut to next point
G0 Z-2.0 ; Raise Z for corner
G0 A-0.1333 ; Rotate blade for new direction
G0 Z-2.0 ; Lower Z to cutting height
G1 X25.375 Y28.096 A-0.1333 F6000.0 ; Cut to next point
G1 X25.175 Y28.268 A-0.1372 F6000.0 ; Cut to next point
G1 X24.969 Y28.435 A-0.1411 F6000.0 ; Cut to next point
G1 X24.760 Y28.598 A-0.1451 F6000.0 ; Cut to next point
G1 X24.547 Y28.755 A-0.1490 F6000.0 ; Cut to next point
G1 X24.329 Y28.907 A-0.1529 F6000.0 ; Cut to next point
G1 X24.108 Y29.053 A-0.1569 F6000.0 ; Cut to next point
G1 X23.883 Y29.194 A-0.1609 F6000.0 ; Cut to next point
G1 X23.654 Y29.330 A-0.1648 F6000.0 ; Cut to next point
G1 X23.421 Y29.460 A-0.1688 F6000.0 ; Cut to next point
G1 X23.185 Y29.585 A-0.1728 F6000.0 ; Cut to next point
G1 X22.946 Y29.703 A-0.1768 F6000.0 ; Cut to next point
G1 X22.829 Y29.769 A-0.1688 F6000.0 ; Cut to next point
G0 Z-2.0 ; Raise Z for corner
G0 A0.0625 ; Rotate blade for new direction
G0 Z-2.0 ; Lower Z to cutting height
G1 X22.904 Y29.951 A0.0625 F6000.0 ; Cut to next point
G1 X22.970 Y30.111 A0.0625 F6000.0 ; Cut to next point
G1 X23.049 Y30.302 A0.0625 F6000.0 ; Cut to next point
G1 X23.137 Y30.513 A0.0625 F6000.0 ; Cut to next point
G1 X23.228 Y30.732 A0.0625 F6000.0 ; Cut to next point
G1 X23.317 Y30.949 A0.0625 F6000.0 ; Cut to next point
G1 X23.401 Y31.151 A0.0625 F6000.0 ; Cut to next point
G1 X23.474 Y31.328 A0.0625 F6000.0 ; Cut to next point
G1 X23.532 Y31.468 A0.0625 F6000.0 ; Cut to next point
G1 X23.571 Y31.561 A0.0625 F6000.0 ; Cut to next point
G0 Z-2.0 ; Raise Z for corner
G0 A0.3040 ; Rotate blade for new direction
G0 Z-2.0 ; Lower Z to cutting height
G1 X23.902 Y31.444 A0.3040 F6000.0 ; Cut to next point
G1 X24.214 Y31.285 A0.3248 F6000.0 ; Cut to next point
G1 X24.521 Y31.119 A0.3292 F6000.0 ; Cut to next point
G1 X24.822 Y30.943 A0.3336 F6000.0 ; Cut to next point
G1 X25.119 Y30.760 A0.3380 F6000.0 ; Cut to next point
G1 X25.410 Y30.570 A0.3424 F6000.0 ; Cut to next point
G1 X25.695 Y30.371 A0.3468 F6000.0 ; Cut to next point
G1 X25.975 Y30.165 A0.3511 F6000.0 ; Cut to next point
G1 X26.249 Y29.951 A0.3555 F6000.0 ; Cut to next point
G1 X26.516 Y29.730 A0.3598 F6000.0 ; Cut to next point
G1 X26.778 Y29.502 A0.3641 F6000.0 ; Cut to next point
G1 X27.033 Y29.268 A0.3685 F6000.0 ; Cut to next point
G1 X27.150 Y29.142 A0.3803 F6000.0 ; Cut to next point
G0 Z-2.0 ; Raise tool to safe height

; Shape: merged_shape_19
G0 X18.340 Y32.762 ; Move to start
G0 A0.4989 ; Set initial blade angle
G0 Z-2.0 ; Plunge to cutting height
G1 X18.342 Y32.490 A0.4989 F6000.0 ; Cut to next point
G1 X18.341 Y32.080 A0.5004 F6000.0 ; Cut to next point
G1 X18.339 Y31.522 A0.5004 F6000.0 ; Cut to next point
G1 X18.338 Y30.842 A0.5004 F6000.0 ; Cut to next point
G1 X18.336 Y30.066 A0.5004 F6000.0 ; Cut to next point
G1 X18.334 Y29.220 A0.5004 F6000.0 ; Cut to next point
G1 X18.332 Y28.331 A0.5004 F6000.0 ; Cut to next point
G1 X18.330 Y27.424 A0.5004 F6000.0 ; Cut to next point
G1 X18.327 Y26.526 A0.5004 F6000.0 ; Cut to next point
G1 X18.325 Y25.663 A0.5004 F6000.0 ; Cut to next point
G1 X18.324 Y24.861 A0.5004 F6000.0 ; Cut to next point
G1 X18.322 Y24.146 A0.5004 F6000.0 ; Cut to next point
G1 X18.320 Y23.544 A0.5004 F6000.0 ; Cut to next point
G1 X18.319 Y23.082 A0.5004 F6000.0 ; Cut to next point
G1 X18.319 Y22.786 A0.5004 F6000.0 ; Cut to next point
G1 X18.318 Y22.681 A0.5004 F6000.0 ; Cut to next point
G0 Z-2.0 ; Raise Z for corner
G0 A0.8504 ; Rotate blade for new direction
G0 Z-2.0 ; Lower Z to cutting height
G1 X18.232 Y22.744 A0.8504 F6000.0 ; Cut to next point
G1 X18.132 Y22.817 A0.8504 F6000.0 ; Cut to next point
G1 X18.002 Y22.912 A0.8504 F6000.0 ; Cut to next point
G1 X17.848 Y23.025 A0.8504 F6000.0 ; Cut to next point
G1 X17.675 Y23.151 A0.8504 F6000.0 ; Cut to next point
G1 X17.488 Y23.287 A0.8504 F6000.0 ; Cut to next point
G1 X17.294 Y23.429 A0.8504 F6000.0 ; Cut to next point
G1 X17.099 Y23.572 A0.8504 F6000.0 ; Cut to next point
G1 X16.907 Y23.712 A0.8504 F6000.0 ; Cut to next point
G1 X16.724 Y23.846 A0.8504 F6000.0 ; Cut to next point
G1 X16.556 Y23.968 A0.8504 F6000.0 ; Cut to next point
G1 X16.410 Y24.075 A0.8504 F6000.0 ; Cut to next point
G1 X16.289 Y24.163 A0.8504 F6000.0 ; Cut to next point
G1 X16.201 Y24.228 A0.8504 F6000.0 ; Cut to next point
G0 Z-2.0 ; Raise Z for corner
G0 A0.9833 ; Rotate blade for new direction
G0 Z-2.0 ; Lower Z to cutting height
G1 X16.180 Y24.427 A0.9833 F6000.0 ; Cut to next point
G0 Z-2.0 ; Raise Z for corner
G0 A1.0404 ; Rotate blade for new direction
G0 Z-2.0 ; Lower Z to cutting height
G1 X16.257 Y24.726 A1.0404 F6000.0 ; Cut to next point
G1 X16.369 Y25.156 A1.0404 F6000.0 ; Cut to next point
G1 X16.509 Y25.697 A1.0404 F6000.0 ; Cut to next point
G1 X16.672 Y26.327 A1.0404 F6000.0 ; Cut to next point
G1 X16.852 Y27.022 A1.0404 F6000.0 ; Cut to next point
G1 X17.044 Y27.761 A1.0404 F6000.0 ; Cut to next point
G1 X17.241 Y28.522 A1.0404 F6000.0 ; Cut to next point
G1 X17.438 Y29.284 A1.0404 F6000.0 ; Cut to next point
G1 X17.630 Y30.023 A1.0404 F6000.0 ; Cut to next point
G1 X17.810 Y30.718 A1.0404 F6000.0 ; Cut to next point
G1 X17.973 Y31.347 A1.0404 F6000.0 ; Cut to next point
G1 X18.113 Y31.888 A1.0404 F6000.0 ; Cut to next point
G1 X18.225 Y32.319 A1.0404 F6000.0 ; Cut to next point
G1 X18.302 Y32.618 A1.0404 F6000.0 ; Cut to next point
G1 X18.340 Y32.762 A1.0404 F6000.0 ; Cut to next point
